packages/gestalt-icons-android/vr-theme/ic_vr_speech-heart_gestalt.svg

<svg width="24" height="24" viewBox="0 0 24 24" fill="none" xmlns="http://www.w3.org/2000/svg">
<path fill-rule="evenodd" clip-rule="evenodd" d="M11.6295 18.4288C11.6298 18.429 11.6301 18.4291 12 17.5L11.6295 18.4288L12 18.5763L12.3699 18.4291L12 17.5C12.3699 18.4291 12.3696 18.4292 12.3699 18.4291L12.3712 18.4286L12.373 18.4278L12.3783 18.4257L12.3952 18.4188C12.4093 18.4131 12.429 18.405 12.4539 18.3945C12.5037 18.3736 12.5744 18.3435 12.6629 18.3042C12.8399 18.2258 13.0892 18.1108 13.3869 17.961C13.9797 17.6628 14.7769 17.2205 15.5805 16.6476C17.1118 15.5558 19 13.7518 19 11.3333V11.1135C19 8.84168 17.1583 7 14.8865 7C13.8031 7 12.767 7.42721 11.9999 8.18292C11.2328 7.42722 10.1967 7 9.11331 7C6.84159 7 5 8.84159 5 11.1133V11.3333C5 13.7518 6.88821 15.5558 8.41948 16.6476C9.22305 17.2205 10.0203 17.6628 10.6131 17.961C10.9108 18.1108 11.1601 18.2258 11.3371 18.3042C11.4256 18.3435 11.4963 18.3736 11.5461 18.3945C11.571 18.405 11.5907 18.4131 11.6048 18.4188L11.6217 18.4257L11.627 18.4278L11.6295 18.4288ZM7 11.1133C7 9.94616 7.94616 9 9.11331 9C9.71246 9 10.2835 9.25432 10.6842 9.69969L11.9997 11.1615L13.3157 9.69953C13.7165 9.25425 14.2874 9 14.8865 9C16.0538 9 17 9.94625 17 11.1135V11.3333C17 12.6927 15.8882 13.9719 14.4195 15.0191C13.7231 15.5156 13.0203 15.9067 12.4881 16.1744C12.2997 16.2692 12.1342 16.3477 12 16.4093C11.8658 16.3477 11.7003 16.2692 11.5119 16.1744C10.9797 15.9067 10.2769 15.5156 9.58052 15.0191C8.11179 13.9719 7 12.6927 7 11.3333V11.1133Z" fill="black"/>
<path fill-rule="evenodd" clip-rule="evenodd" d="M12 23.5C13.7956 23.5 15.4951 23.0885 17.0093 22.3546L20.6863 23.0035C22.0536 23.2448 23.2448 22.0536 23.0035 20.6863L22.3546 17.0093C23.0885 15.4951 23.5 13.7956 23.5 12C23.5 5.64873 18.3513 0.5 12 0.5C5.64873 0.5 0.5 5.64873 0.5 12C0.5 18.3513 5.64873 23.5 12 23.5ZM20.5548 16.137L20.2725 16.7195L21.0339 21.0339L16.7195 20.2725L16.137 20.5548C14.8888 21.1598 13.487 21.5 12 21.5C6.75329 21.5 2.5 17.2467 2.5 12C2.5 6.75329 6.75329 2.5 12 2.5C17.2467 2.5 21.5 6.75329 21.5 12C21.5 13.487 21.1598 14.8888 20.5548 16.137Z" fill="black"/>
</svg>

<svg xmlns="http://www.w3.org/2000/svg" width="24" height="24"><path d="m11.63 18.43.37-.93zl.37.15.37-.15-.37-.93.37.93.03-.01.26-.12a16 16 0 0 0 2.92-1.65c1.53-1.1 3.42-2.9 3.42-5.32v-.22a4.11 4.11 0 0 0-7-2.93 4.11 4.11 0 0 0-7 2.93v.22c0 2.42 1.89 4.23 3.42 5.32a17 17 0 0 0 3.18 1.77zM7 11.1a2.11 2.11 0 0 1 3.68-1.41L12 11.16l1.32-1.46A2.11 2.11 0 0 1 17 11.11v.22c0 1.36-1.11 2.64-2.58 3.69A15 15 0 0 1 12 16.4 15 15 0 0 1 9.58 15C8.11 13.98 7 12.7 7 11.34zm5 12.39c1.8 0 3.5-.41 5-1.15l3.69.65A2 2 0 0 0 23 20.7l-.65-3.7A11.5 11.5 0 1 0 12 23.5m8.55-7.36-.28.58.76 4.31-4.31-.76-.58.28q-1.89.93-4.14.95a9.5 9.5 0 1 1 8.55-5.36"/></svg>
